shader_type canvas_item;

void vertex() {
	// Called for every vertex the material is visible on.
}

void fragment() {
	// Called for every pixel the material is visible on.
	vec2 st = UV;
	vec3 color = vec3(0);
	color = vec3(st.x,st.y,abs(sin(TIME)));
	COLOR = vec4(color,1.0);
}

//void light() {
//	// Called for every pixel for every light affecting the CanvasItem.
//	// Uncomment to replace the default light processing function with this one.
//}
